packages/icons/src/components/Icon/assets/default-outline/box-essentials.svg

<svg width="20" height="20" viewBox="0 0 20 20" fill="none" xmlns="http://www.w3.org/2000/svg">
<path d="M17.2502 6.7793L10.8306 10.1021V17.2883L17.2502 14.0999V6.7793ZM3.66626 5.55005L10.0774 8.802L16.3604 5.55005L10.0762 2.3396L3.66626 5.55005ZM2.74951 14.095L9.33032 17.2993V10.1057L2.74951 6.76709V14.095ZM18.7505 14.5649C18.7504 14.8494 18.5889 15.1096 18.3342 15.2363L10.4143 19.1719C10.2061 19.2752 9.96166 19.276 9.75269 19.1743L1.67163 15.2388C1.41381 15.1132 1.25058 14.8517 1.25049 14.5649V5.54639C1.25066 5.26267 1.4106 5.00329 1.66431 4.87622L9.74536 0.829591L9.82715 0.794191C10.0208 0.724541 10.236 0.737273 10.4216 0.832032L18.3416 4.87866C18.5922 5.0068 18.7503 5.26489 18.7505 5.54639V14.5649Z" fill="#727683"/>
</svg>

<svg xmlns="http://www.w3.org/2000/svg" width="20" height="20" fill="none" viewBox="0 0 20 20">
    <path fill="#727683" d="m17.25 6.78-6.42 3.322v7.186l6.42-3.188zM3.666 5.55l6.411 3.252L16.36 5.55l-6.284-3.21zm-.916 8.545 6.58 3.204v-7.193L2.75 6.767zm16 .47a.75.75 0 0 1-.416.671l-7.92 3.936a.75.75 0 0 1-.661.002L1.672 15.24a.75.75 0 0 1-.422-.674v-9.02a.75.75 0 0 1 .414-.67L9.745.83l.082-.036a.75.75 0 0 1 .595.038l7.92 4.047c.25.128.408.386.409.667z"/>
</svg>
